X: 29312
T: New Whistle, The
R: hornpipe
M: 4/4
K: Dmajor
|:dAFA fAeA|dA (3FGA dA (3FGA|eB (3GAB gBfB|eB (3GAB eB (3GAB|
ecAc efgf|ecAB (3Bcd e2|(3BcB (3ABA (3GAG (3FGF|(3EFE (3DFA dedc:|
|:BcBG dB (3GAB|ABAF D2 FD|EG (3Bcd edcB|caag f2 ef|
gecg eg (3bag|fdBf d2 (3fed|ecAB (3Bcd ec|(3ded ce dedc:|

